Obsidian-SemiLight/actions/24s/edit-table-insert-row-under.svg

<svg viewBox="0 0 24 24" xmlns="http://www.w3.org/2000/svg"><path d="m4 4v5h1v-4h2v3 1h1v-1-3h2v4h1v-4h2v4h1v-4h2v3 1h1v-1-3h2v4h1v-4-1h-15zm11 6 2.5 5 2.5-5zm-11 5v5h1 8 1 2 1 2 1v-1-4h-1v4h-2v-4h-1v4h-2v-4h-1v4h-2v-4h-1v4h-2v-4h-1v4h-2v-4z" fill="#4d4d4d"/><path d="m4 9v1h1 3.28125l-3.28125 3.28125v.011719l-.7070312.707031h-.2929688v1h1 7 2v-1h-.28125l.28125-.28125v-1.4375l-1.71875 1.71875h-.28125-2.28125l2.28125-2.28125 1.71875-1.71875h.28125v-1h-2-2.7070312-4.2929688zm5.71875 1h2.28125.28125l-.28125.28125-3.71875 3.71875h-2.5625z" fill="#3daee9"/></svg>

<svg xmlns="http://www.w3.org/2000/svg" viewBox="0 0 24 24">
  <defs id="defs3051">
    <style type="text/css" id="current-color-scheme">
      .ColorScheme-Text {
        color:#4d4d4d;
      }
      .ColorScheme-Highlight {
        color:#3daee9;
      }
      </style>
  </defs>
 <path 
     style="fill:currentColor;fill-opacity:1;stroke:none" 
     d="M 4 4 L 4 9 L 5 9 L 5 5 L 7 5 L 7 8 L 7 9 L 8 9 L 8 8 L 8 5 L 10 5 L 10 9 L 11 9 L 11 5 L 13 5 L 13 9 L 14 9 L 14 5 L 16 5 L 16 8 L 16 9 L 17 9 L 17 8 L 17 5 L 19 5 L 19 9 L 20 9 L 20 5 L 20 4 L 5 4 L 4 4 z M 15 10 L 17.5 15 L 20 10 L 15 10 z M 4 15 L 4 20 L 5 20 L 13 20 L 14 20 L 16 20 L 17 20 L 19 20 L 20 20 L 20 19 L 20 15 L 19 15 L 19 19 L 17 19 L 17 15 L 16 15 L 16 19 L 14 19 L 14 15 L 13 15 L 13 19 L 11 19 L 11 15 L 10 15 L 10 19 L 8 19 L 8 15 L 7 15 L 7 19 L 5 19 L 5 15 L 4 15 z "
     class="ColorScheme-Text"
     />
 <path 
     style="fill:currentColor;fill-opacity:1;stroke:none" 
     d="M 4 9 L 4 10 L 5 10 L 8.28125 10 L 5 13.28125 L 5 13.292969 L 4.2929688 14 L 4 14 L 4 15 L 5 15 L 12 15 L 14 15 L 14 14 L 13.71875 14 L 14 13.71875 L 14 12.28125 L 12.28125 14 L 12 14 L 9.71875 14 L 12 11.71875 L 13.71875 10 L 14 10 L 14 9 L 12 9 L 9.2929688 9 L 5 9 L 4 9 z M 9.71875 10 L 12 10 L 12.28125 10 L 12 10.28125 L 8.28125 14 L 5.71875 14 L 9.71875 10 z "
     class="ColorScheme-Highlight"
     />
</svg>
